X:1
T:If Angels Sang Our Savior’s Birth
T:If Angels Sang Our Savior’s Birth
T:Arthur Henry Brown
T:Anonymous, 1877
T:Public Domain Courtesy of the Cyber Hymnal™
T:Public Domain Courtesy of the Cyber Hymnal™
C:Arthur Henry Brown
Z:Public Domain
Z:Courtesy of the Cyber Hymnal™
%%score ( 1 2 ) ( 3 4 )
L:1/8
Q:1/4=100
M:4/4
K:G
V:1 treble 
V:2 treble 
V:3 bass 
V:4 bass 
V:1
 [DGB]2 | [DA]2 [FAd]2 ([Gc]B) (AG) | (AB) [DFc]2 !fermata![DGB]2 [DGB]2 | %3
w: 1.~If|an- gels sang * our *|Sav- * ior’s birth, On|
w: 2.~Grieve|not, vain man, * who *|mor- * tal art, That|
w: 3.~Him-|self He hum- * bled *|to * the grave, Made|
w: 4.~Then|with per- pe- * tual *|hymns * let Christ, Who|
 (AB) ([G^c][Fd]) (E[DF]) (GA) | [DF]4 z2 [DFA]2 | [DGB]2 [GB]2 [FA]2 (AB) | %6
w: that * most * bless- * èd *|morn, Then|let us im- i- *|
w: thou * to * earth * must *|fall; It|was His por- tion, *|
w: flesh * like * us * to *|show, That|we as cer- tain- *|
w: from * the * dead * was *|raised, With|Fa- ther and the *|
 [EAc]2 c2 !fermata![GB]2 ([FB][Ec]) | (dB) (AG) A3 z x | G4 [B,DG]2 ||"^Refrain" Bc | %10
w: tate their mirth, Now *|He * a- * gain|is born.||
w: ’twas His part Of *|Him * who * made|us all.||
w: ly shall have, A *|res- * ur- * rec-|tion too.||
w: Ho- ly Ghost, E- *|ter- * nal- * ly|be praised.||
 [Gd]3 [Gd] [Gd]2 d2 | e3 (z e) [Gd]2 z [Gd] | B3 A [Gc]2 [GB]2 | A4 [FA]2 z [EA] | %14
w: ||||
w: Sur- rex- it Chris-|tus * ho- di-|* * e, Sur-|rex- it pro|
w: ||||
w: ||||
 [FB]3 [^DA] [EG]2 (GF) | E2 G2 A2 z2 | [Fd]3 [Fd] [EG]2 [GB]2 | A3 [FA] G2 z2 |] %18
w: ||||
w: no- bis; Sur- rex- *|it Chris- tus|ho- di- e, Glo-|ria, Je- su|
w: ||||
w: ||||
V:2
 x2 | x3 D4 x | E2 x6 | D2 x3 ^C2 x | x8 | x2 (DE) x [D=F]2 x | x2 (EF) x4 | %7
 [DG]2 ^C2 [DG]2 ([=CF]2 G) | C2 B,A, x2 || D2 | x6 (GF) | (EF) G2 x5 | F4 x4 | (EF G2) x4 | %14
 x6 GF | E2 G2 A2 x2 | x8 | (GEF) G2 x3 |] %18
V:3
 G,2 | F,2 D,2 G,2 B,,2 | C,2 D,2 !fermata!G,,2 G,2 | F,2 ([E,G,][D,A,]) [G,B,]2 A,2 | %4
 [F,A,]4 z2 F,2 | (G,A,) (B,^C) D2 D,2 | (A,,B,,) (C,D,) !fermata!E,2 (D,C,) | B,,2 E,2 D,4 x | %8
 G,,6 || (G,A,) | [G,B,]3 [G,B,] [G,B,]2 [G,B,]2 | [C,C]3 [C,C] [G,B,]2 z [G,B,] x | %12
 (A,3 D) [C,E]2 [G,,D]2 | (DA,B,^C) [D,D]2 z [^C,E] | [B,,^D]3 [B,,B,] [E,B,]2 G,F, | %15
 E,2 G,2 A,2 z2 | [D,D]3 [D,C] [E,B,]2 [B,,D]2 | [C,E]2 DC [G,,B,]2 z2 |] %18
V:4
 x2 | x8 | x8 | x8 | x8 | x8 | x8 | x9 | x6 || G,2 | x8 | x9 | D,4 x4 | A,,4 x4 | x6 G,F, | %15
 E,2 G,2 A,2 x2 | x8 | x2 D,2 x4 |] %18

